!!!!SEGMENT: Crp1002c-Missa_A_lombre_dung_buissonet-Credo
!!!id: Crp1002c
!!!AGN: Mass; Credo
!!!voices: 4
!!!OPR: Missa A l'ombre d'ung buissonet
!!!COM: Carpentras
!!!OTL: Credo
**kern	**kern	**kern	**kern
*part4	*part3	*part2	*part1
*staff4	*staff3	*staff2	*staff1
*I"Bassus	*I"Tenor	*I"Altus	*I"Superius
*I'B.	*I'T.	*I'A.	*I'S.
*clefGv2	*clefG2	*clefG2	*clefG2
*k[]	*k[]	*k[]	*k[]
*M2/1	*M2/1	*M2/1	*M2/1
*met(C|)	*met(C|)	*met(C|)	*met(C|)
=1	=1	=1	=1
!!section: Patrem omnipotentem
!!!OMD: Patrem omnipotentem
0r	0r	1g	1r
.	.	1g	1dd
=2	=2	=2	=2
0r	0r	2.d	1dd
.	.	4e	.
.	.	4f	2.a
.	.	4g	.
.	.	[2a	.
.	.	.	4b
=3	=3	=3	=3
0r	0r	2a]	4cc
.	.	.	4dd
.	.	2g	1ee
.	.	2f	.
.	.	4e	2dd
.	.	4d	.
=4	=4	=4	=4
1r	0r	2e	2dd
.	.	2e	2cc#i
1G	.	1d	1dd
=5	=5	=5	=5
2G	1d	0r	0r
2G	.	.	.
2.D	2d	.	.
.	2d	.	.
4E	.	.	.
=6	=6	=6	=6
4F	2.A	0r	0r
4G	.	.	.
1A	.	.	.
.	4B	.	.
.	4c	.	.
.	4d	.	.
2G	[2e	.	.
=7	=7	=7	=7
2F	2e]	0r	0r
4E	2d	.	.
4D	.	.	.
2E	2d	.	.
2E	2c#i	.	.
=8	=8	=8	=8
2D	1d	2.f	0r
1d	.	.	.
.	.	4f	.
.	1r	2f	.
2c	.	2e	.
=9	=9	=9	=9
1d	2.f	2d	0r
.	.	1a	.
.	4f	.	.
1r	2f	.	.
.	2e	2g	.
=10	=10	=10	=10
2.F	2d	2.f	0r
.	1a	.	.
4F	.	8eL	.
.	.	8dJ	.
2F	.	2c	.
2E	2g	2c	.
=11	=11	=11	=11
1D	2.f	2d	2.ff
.	.	2.a	.
.	8eL	.	4ff
.	8dJ	.	.
2A	2c	.	2ff
.	.	4g	.
2A	2c	4a	2ee
.	.	4f	.
=12	=12	=12	=12
2.B-X	1d	2g	2dd
.	.	2f	1dd
4A	.	.	.
1G	1B	2f	.
.	.	2e	4cc
.	.	.	4b
=13	=13	=13	=13
1F	2.c	1f	2.a
.	4d	.	4b
2E	2e	2g	2cc
2D	[2f	[2a	[2dd
=14	=14	=14	=14
2F	4f]	4a]	2dd]
.	4e	4g	.
2A	2c	4e	2cc
.	.	4f	.
2G	2d	1g	2cc
2G	2d	.	2b
=15	=15	=15	=15
1C	0c	1e	1cc
1r	.	2.g	1r
.	.	4g	.
=16	=16	=16	=16
2.G	0r	2g	1r
.	.	2g	.
4G	.	.	.
2G	.	2g	2.dd
2G	.	2g	.
.	.	.	4dd
=17	=17	=17	=17
2G	2.d	2d	2dd
2G	.	2g	2dd
.	4d	.	.
1D	2d	2f	2dd
.	2d	4d	2dd
.	.	4e	.
=18	=18	=18	=18
0r	2d	4f	2.a
.	.	4g	.
.	2d	1a	.
.	.	.	4b
.	2A	.	4cc
.	.	.	4dd
.	[2c	[2g	[2ee
=19	=19	=19	=19
0r	2c]	2g]	2ee]
.	2d	2f	2dd
.	1e	1g	2dd
.	.	.	2cc#i
=20	=20	=20	=20
2.B-X	0d	2r	[0dd
.	.	2g	.
4B-i	.	.	.
2B-i	.	2g	.
2A	.	2f	.
=21	=21	=21	=21
1.G	0r	2.b-i	0dd]
.	.	4a	.
.	.	2b-i	.
4F	.	[2a	.
4E	.	.	.
=22	=22	=22	=22
2.D	2.f	4a]	0r
.	.	4g	.
.	.	4f	.
4E	4f	4e	.
4F	2f	2d	.
4G	.	.	.
2A	2e	2c	.
=23	=23	=23	=23
2D	2.d	2.f	2.ff
1d	.	.	.
.	8cL	4g	4ff
.	8BJ	.	.
.	2A	4a	2ff
.	.	4f	.
2c	2e	[2g	2ee
=24	=24	=24	=24
2.B-X	1f	2g]	1.dd
.	.	1f	.
4A	.	.	.
1G	2g	.	.
.	2g	2e	4cc
.	.	.	4b
=25	=25	=25	=25
2F	1.c	1f	2.a
1A	.	.	.
.	.	.	4b
.	.	2r	2cc
2G	2B	2g	[2dd
=26	=26	=26	=26
2.F	1c	1g	2dd]
.	.	.	2cc
4E	.	.	.
1D	2d	2f	2cc
.	2d	2f	2b
=27	=27	=27	=27
1C	1e	1g	0cc
2.F	1r	2.a	.
4F	.	4a	.
=28	=28	=28	=28
2F	2.d	2a	0r
2F	.	2a	.
.	4d	.	.
1G	2d	1b	.
.	2d	.	.
=29	=29	=29	=29
1C	1e	2.cc	0r
.	.	4b	.
2r	2.f	2a	.
2D	.	2a	.
.	4e	.	.
=30	=30	=30	=30
4D	2d	2.f	1r
4C	.	.	.
4D	2d	.	.
4E	.	4g	.
2F	2A	2a	2.dd
2G	[2B-X	2d	.
.	.	.	4dd
=31	=31	=31	=31
2D	2B-]	2.f	2dd
2F	1A	.	2dd
.	.	8eL	.
.	.	8dJ	.
2E	.	4c	1ee
.	.	2d	.
2E	2G	.	.
.	.	4c	.
=32	=32	=32	=32
1D	2A	4d	2.ff
.	.	4e	.
.	2d	4f	.
.	.	4g	4ee
1d	1f	4a	2dd
.	.	4g	.
.	.	4a	2dd
.	.	4b	.
=33	=33	=33	=33
2c	2e	2cc	2a
2d	1d	1f	1b-X
2A	.	.	.
2A	2c	[2e	[2a
=34	=34	=34	=34
2B-X	1d	2e]	2a]
2B-i	.	1d	2g
1A	1e	.	[1a
.	.	2c#i	.
=35	=35	=35	=35
1r	2f	2d	1a]
.	2.d	2.f	.
1F	.	.	1r
.	4e	4e	.
.	4f	[2d	.
.	4d	.	.
=36	=36	=36	=36
2E	1g	2d]	0r
2E	.	2c#i	.
2.D	2.f	1d	.
4E	4e	.	.
=37	=37	=37	=37
4F	2d	0r	1r
4G	.	.	.
2.A	2c	.	.
.	1d	.	1b-X
4G	.	.	.
[2G	.	.	.
=38	=38	=38	=38
2G]	2r	0r	2a
2F#i	2d	.	2a
[1G	2e	.	2.g
.	[2g	.	.
.	.	.	4a
=39	=39	=39	=39
1G]	2g]	0r	4b
.	.	.	4cc
.	2f	.	2.dd
1r	2e	.	.
.	.	.	4cc
.	4d	.	[2cc
.	4c	.	.
=40	=40	=40	=40
2r	1d	0r	2cc]
2G	.	.	2b
2A	2.c	.	1cc
[2c	.	.	.
.	4d	.	.
=41	=41	=41	=41
2c]	4e	1g	0r
.	4f	.	.
2B	2.g	.	.
2A	.	2a	.
.	4f	.	.
4G	2f	[2cc	.
4F	.	.	.
=42	=42	=42	=42
2G	4e	2cc]	1r
.	4d	.	.
2G	2e	2b	.
1F	2f	2a	2.cc
.	[2c	4g	.
.	.	4f	4dd
=43	=43	=43	=43
0r	4c]	2g	4ee
.	4d	.	4ff
.	4e	2g	1gg
.	4f	.	.
.	2.g	2c	.
.	.	[2g	2dd
.	4f	.	.
=44	=44	=44	=44
1r	2e	2g]	2ee
.	2.d	2a	2.ff
2r	.	2f	.
.	4c	.	4ee
[2G	4B	[2g	4dd
.	4A	.	4cc
=45	=45	=45	=45
2G]	2d	4g]	4b
.	.	4f	4a
2A	2c	4e	1cc
.	.	4d	.
2F	1d	2a	.
2G	.	[2g	2b
=46	=46	=46	=46
1D	2r	2g]	1a
.	2d	2f#i	.
1G	2.e	1g	[1g
.	4d	.	.
=47	=47	=47	=47
2r	2c	0r	1g]
2G	2B	.	.
2.A	2c	.	1r
.	4A	.	.
4G	4B	.	.
=48	=48	=48	=48
2F	4c	2r	0r
.	4d	.	.
2E	2.e	2g	.
2F	.	2.a	.
.	4d	.	.
2D	[2d	.	.
.	.	4g	.
=49	=49	=49	=49
1A	2d]	2f	0r
.	2c	2e	.
1D	4B	2.f	.
.	4A	.	.
.	2d	.	.
.	.	4g	.
=50	=50	=50	=50
2r	2c	2e	1gg
2G	2B	2d	.
2.A	1c	1r	1ff
4G	.	.	.
=51	=51	=51	=51
2F	2G	2r	2dd
2E	2B	2g	2.ee
[1A	[1c	2.a	.
.	.	.	4dd
.	.	.	4cc
.	.	4g	4b
=52	=52	=52	=52
2A]	2c]	2f	2a
2G	2B	2e	1ee
2A	2c	2f	.
2B	2d	2g	2dd
=53	=53	=53	=53
2G	2B	1e	2dd
2A	1A	.	2cc#i
2F	.	2.d	[1dd
2G	2B	.	.
.	.	4e	.
=54	=54	=54	=54
2.D	2A	4f	0dd_
.	.	4g	.
.	1d	2.a	.
4E	.	.	.
2F	.	.	.
.	.	4g	.
2G	4c	[2g	.
.	4B	.	.
=55	=55	=55	=55
1D	4A	2g]	0dd_
.	4G	.	.
.	2A	2f#i	.
1r	1G	[1g	.
=56	=56	=56	=56
2.G	1r	1g]	1dd]
4G	.	.	.
2G	2.d	1r	1r
2D	.	.	.
.	4d	.	.
=57	=57	=57	=57
2.F	2d	0r	0r
.	2A	.	.
4G	.	.	.
1A	2.c	.	.
.	4d	.	.
=58	=58	=58	=58
2r	1e	0r	0r
2A	.	.	.
2A	2r	.	.
2G	2e	.	.
=59	=59	=59	=59
2A	2e	0r	0r
2B	2d	.	.
2c	2e	.	.
2A	2f	.	.
=60	=60	=60	=60
1G	2g	1r	0r
.	2e	.	.
2r	2d	2r	.
2G	2d	2g	.
=61	=61	=61	=61
2B	2d	2g	0r
2B	2d	2g	.
2.A	2.c	2.f	.
4G	4B	4e	.
=62	=62	=62	=62
2F	2A	2d	0r
2E	2G	2c#i	.
1D	1A	1d	.
=63	=63	=63	=63
2r	2r	2r	2r
1D	1d	1a	1ff
2D	2d	2a	2ff
=64	=64	=64	=64
2A	2c#X	2a	2ee
2A	2c#i	2a	2ee
2B	2d	2f	2dd
2B	2d	2g	2dd
=65	=65	=65	=65
1A	1e	1a	1cc#X
2r	2r	2r	2r
2D	2d	2a	2dd
=66	=66	=66	=66
2D	2d	2a	2ff
2D	2d	2a	2ff
2A	2c#X	2a	2ee
2A	2c#i	2a	2ee
=67	=67	=67	=67
2B	2d	2f	2dd
2B	2d	2g	2dd
1A	1e	1a	1cc#X
=68	=68	=68	=68
0r	1f	2r	2r
.	.	2a	2dd
.	2.e	2.g	2.cc
.	4d	4f	4b
=69	=69	=69	=69
1r	2c	2e	2a
.	2B	2d	2g
2r	2A	2e	[1a
2D	2d	2f	.
=70	=70	=70	=70
2.A	2.c	2.f	1a]
4G	4B	4e	.
2F	2A	2d	1r
2E	2G	2c#i	.
=71	=71	=71	=71
0D	0A	2d	2r
.	.	2a	2ff
.	.	2.a	2.ff
.	.	4g	4ee
=72	=72	=72	=72
1r	1r	2f	2dd
.	.	2e	2cc#i
2r	2r	2d	[1dd
2d	2f	2a	.
=73	=73	=73	=73
2.d	2.f	2.b-i	1dd]
4c	4e	4a	.
2B	2d	2g	2r
2A	2c	2f	2a
=74	=74	=74	=74
1G	2.d	1g	2.b-X
.	4c	.	4a
2r	2B	1r	2g
2D	2A	.	2f
=75	=75	=75	=75
2E	2.G	2r	4g
.	.	.	4a
2.G	.	1g	4b
.	4A	.	4cc
.	4B	.	4dd
4F	4c	.	4ee
[2D	[2d	2f	[2ff
=76	=76	=76	=76
4D]	4d]	1.a	2ff]
4E	4c	.	.
4F	4A	.	4ee
4G	4B	.	4dd
4A	2.c	.	2ff
4B	.	.	.
[2c	.	[2g	[2ee
.	4d	.	.
=77	=77	=77	=77
4c]	2e	2g]	4ee]
4B	.	.	4dd
1A	1f	2a	4cc
.	.	.	4b
.	.	1f	4a
.	.	.	4b
4G	4e	.	4cc
4F	4d	.	4dd
=78	=78	=78	=78
2E	2c	2g	4ee
.	.	.	4dd
2D	2d	2f	2.ff
2d	2f	2a	.
.	.	.	4ee
2G	2g	2b-i	[2dd
=79	=79	=79	=79
1A	1e	1a	2dd]
.	.	.	2cc#i
[1Dl	[1dl	[1al	[1ddl
=80	=80	=80	=80
0D]	0d]	0a]	0dd]
=81||	=81||	=81||	=81||
*M2/1	*M2/1	*M2/1	*M2/1
*met(C|)	*met(C|)	*met(C|)	*met(C|)
!!section: Et incarnatus est
!!!OMD: Et incarnatus est
0G	0B	0g	0dd
=82	=82	=82	=82
1G	1B	1g	1dd
1C	1c	1g	1ee
=83	=83	=83	=83
1G	1d	1.g	1.dd
1G	1e	.	.
.	.	2g	2cc
=84	=84	=84	=84
0G	0d	0g	0b
=85	=85	=85	=85
1A	1c	1.e	1cc
1A	1c	.	1cc
.	.	2f	.
=86	=86	=86	=86
1G	1d	1g	1b
1E	2e	1g	1cc
.	[2c	.	.
=87	=87	=87	=87
1F	2c]	1a	0dd
.	4B	.	.
.	4A	.	.
1G	1B	1g	.
=88	=88	=88	=88
1C	2c	2.g	0ee
.	1g	.	.
.	.	4f	.
[1c	.	2e	.
.	2f	2d	.
=89	=89	=89	=89
2c]	2e	1c	0ee
2B	2d	.	.
2A	2c	2r	.
2G	2B	2g	.
=90	=90	=90	=90
2.F	1A	1a	0ff
4E	.	.	.
1D	2r	2b-X	.
.	2d	[2a	.
=91	=91	=91	=91
0A	2c	2a]	0ee
.	2A	4g	.
.	.	4f	.
.	1c	4e	.
.	.	4d	.
.	.	4e	.
.	.	4f	.
=92	=92	=92	=92
1E	2.B	4g	0ee
.	.	4e	.
.	.	1a	.
.	4A	.	.
1E	2B	.	.
.	2B	2g#i	.
=93	=93	=93	=93
2.F	[0A	2.a	1cc
4E	.	4g	.
2D	.	2f	2dd
2C	.	2e	[2ee
=94	=94	=94	=94
1D	0A_	2.f	4ee]
.	.	.	4dd
.	.	.	1dd
.	.	4g	.
1A	.	1e	.
.	.	.	2cc#i
=95	=95	=95	=95
0D;	0A;]	0d;	0dd;
=96	=96	=96	=96
0A	0c#X	1r	0ee
.	.	1a	.
=97	=97	=97	=97
0D	1d	0a	0ff
.	1A	.	.
=98	=98	=98	=98
0A	1.c	[0a	0ee
.	2d	.	.
=99	=99	=99	=99
0A	1e	0a]	1.cc
.	1f#X	.	.
.	.	.	2dd
=100	=100	=100	=100
0G	1.g	0b-X	1ee
.	.	.	[1dd
.	2f	.	.
=101	=101	=101	=101
0A	2.e	0a	1dd]
.	4d	.	.
.	1e	.	1cc#i
=102	=102	=102	=102
0B	[0dl	1.f	[0ddl
.	.	2g	.
=103	=103	=103	=103
0Gl	0d]	0gl	0dd]
=104||	=104||	=104||	=104||
*M2/1	*M2/1	*M2/1	*M2/1
*met(C|)	*met(C|)	*met(C|)	*met(C|)
!!section: Crucifixus
!!!OMD: Crucifixus
0r	0r	0r	1dd
.	.	.	1ee
=105	=105	=105	=105
0r	0r	0r	0dd
=106	=106	=106	=106
0r	0r	1g	1b
.	.	1a	2cc
.	.	.	2cc
=107	=107	=107	=107
0G	0r	0g	2.b
.	.	.	4cc
.	.	.	2dd
.	.	.	[2ee
=108	=108	=108	=108
0A	0r	1e	4ee]
.	.	.	4dd
.	.	.	4cc
.	.	.	4b
.	.	2f	2a
.	.	2f	[2cc
=109	=109	=109	=109
1G	0r	2.e	2cc]
.	.	.	1b
.	.	4f	.
1E	.	1g	.
.	.	.	[2ee
=110	=110	=110	=110
1F	0r	1a	2ee]
.	.	.	4dd
.	.	.	4cc
1F	.	2r	1dd
.	.	[2a	.
=111	=111	=111	=111
1E	0r	2a]	1ee
.	.	2g	.
1F	.	1a	2cc
.	.	.	[2dd
=112	=112	=112	=112
0G	0r	2d	4dd]
.	.	.	4cc
.	.	2.g	4b
.	.	.	4a
.	.	.	1b
.	.	4f	.
.	.	4d	.
.	.	4e	.
=113	=113	=113	=113
0A	0r	2f	2a
.	.	2e	1ee
.	.	2c	.
.	.	[2cc	2ff
=114	=114	=114	=114
1A	0r	4cc]	2ee
.	.	4b	.
.	.	2a	2cc
1B	.	2g	2dd
.	.	2f	[2ff
=115	=115	=115	=115
1A	0r	1a	2ff]
.	.	.	4ee
.	.	.	4dd
1A	.	2.cc	2ee
.	.	.	[2a
.	.	4dd	.
=116	=116	=116	=116
1F	0r	2a	2a]
.	.	4g	1dd
.	.	4f	.
2G	.	1e	.
[2A	.	.	2cc#i
=117	=117	=117	=117
4A]	0r	1r	0dd
4G	.	.	.
1G	.	.	.
.	.	1a	.
2F#i	.	.	.
=118	=118	=118	=118
1G	0r	1b	1r
1r	.	1a	1ee
=119	=119	=119	=119
0r	0r	2d	1ff
.	.	1a	.
.	.	.	[1ee
.	.	4g	.
.	.	4f	.
=120	=120	=120	=120
0A	0r	4e	1ee]
.	.	4d	.
.	.	4c	.
.	.	4B	.
.	.	2A	1cc
.	.	[2a	.
=121	=121	=121	=121
0B-i	0r	2a]	2dd
.	.	2.d	1ff
.	.	4e	.
.	.	4f	4ee
.	.	4g	4dd
=122	=122	=122	=122
0A	0r	4a	2.cc
.	.	4g	.
.	.	4a	.
.	.	4b	4dd
.	.	2.cc	2ee
.	.	.	[2a
.	.	4b	.
=123	=123	=123	=123
1F	0r	4a	4a]
.	.	4g	4b
.	.	1a	4cc
.	.	.	4dd
1G	.	.	4ee
.	.	.	4ff
.	.	2g	[2ee
=124	=124	=124	=124
1A	0r	2f	4ee]
.	.	.	4dd
.	.	4e	1dd
.	.	4d	.
1A	.	2e	.
.	.	2e	2cc#i
=125	=125	=125	=125
0D	0r	0d	1dd
.	.	.	2r
.	.	.	2dd
=126	=126	=126	=126
0r	0r	2r	2ff
.	.	2a	2ff
.	.	2cc	1ee
.	.	2cc	.
=127	=127	=127	=127
2r	0r	1b	2dd
2d	.	.	1dd
2f	.	1a	.
2f	.	.	2a
=128	=128	=128	=128
1e	0r	2r	1cc
.	.	1g	.
2d	.	.	1b
[2d	.	2d	.
=129	=129	=129	=129
2d]	0r	1f	1a
2A	.	.	.
1c	.	1e	2r
.	.	.	2a
=130	=130	=130	=130
1B	0r	1d	2a
.	.	.	2g
2A	.	1a	2.cc
2A	.	.	.
.	.	.	4dd
=131	=131	=131	=131
2A	0r	1a	4ee
.	.	.	4cc
2F	.	.	2.ff
2G	.	2f	.
.	.	.	4ee
2A	.	2e	[2ee
=132	=132	=132	=132
1D	0r	1f	2ee]
.	.	.	2dd
2r	.	1e	[1ee
2A	.	.	.
=133	=133	=133	=133
2A	0r	2r	1ee]
2A	.	2e	.
2.c	.	2e	1r
.	.	2e	.
8BL	.	.	.
8AJ	.	.	.
=134	=134	=134	=134
2.G	0r	2.g	0r
4A	.	8fL	.
.	.	8eJ	.
1B	.	2.d	.
.	.	4e	.
=135	=135	=135	=135
1A	0r	1f	2r
.	.	.	2a
1A	.	1e	2a
.	.	.	2a
=136	=136	=136	=136
2A	0r	2r	2.cc
2A	.	2e	.
.	.	.	8bL
.	.	.	8aJ
2.c	.	2e	2.g
.	.	2d	.
8BL	.	.	4a
8AJ	.	.	.
=137	=137	=137	=137
2.G	0r	2.g	2b
.	.	.	2cc
4A	.	8fL	.
.	.	8eJ	.
2B	.	2.d	2dd
2B	.	.	2dd
.	.	4e	.
=138	=138	=138	=138
1A	0r	2f	2.cc
.	.	2.f	.
.	.	.	4b
2r	.	.	4a
.	.	4e	4g
2A	.	2e	[2a
=139	=139	=139	=139
2.d	0r	2r	2a]
.	.	2d	4g
4d	.	.	4f
2c	.	2.a	2e
2A	.	.	2a
.	.	4a	.
=140	=140	=140	=140
2B	0r	2f	2.dd
2B	.	2d	.
.	.	.	4dd
2A	.	2e	2cc
2A	.	2e	2a
=141	=141	=141	=141
2.d	0r	2d	2b
.	.	2f	2b
4d	.	.	.
2c	.	2e	2a
2A	.	2f	2a
=142	=142	=142	=142
2B	0r	2.d	2.dd
2B	.	.	.
.	.	4e	4dd
1A	.	4f	2cc
.	.	4d	.
.	.	[2a	2a
=143	=143	=143	=143
2r	0r	2a]	2b
2E	.	2g	2b
1A	.	2e	1a
.	.	[2f	.
=144	=144	=144	=144
2G	0r	4f]	2r
.	.	4e	.
2E	.	2e	2ee
1F	.	2r	2cc
.	.	2a	2dd
=145	=145	=145	=145
1E	0r	2g	2ee
.	.	2e	2ee
2r	.	2.f	1a
2A	.	.	.
.	.	4g	.
=146	=146	=146	=146
2G	0r	2e	2r
2E	.	2g	2b
2F	.	2f	2a
2G	.	[2e	2b
=147	=147	=147	=147
2E	0r	2e]	2g
2G	.	2.e	2g
1F	.	.	1a
.	.	4d	.
.	.	[2a	.
=148	=148	=148	=148
1E	0r	2a]	1b
.	.	2g#i	.
2r	.	1a	2.cc
[2A	.	.	.
.	.	.	4dd
=149	=149	=149	=149
2A]	0r	2r	4ee
.	.	.	4cc
2D	.	1a	1ff
2F	.	.	.
2G	.	2d	4ee
.	.	.	4dd
=150	=150	=150	=150
1A	0r	2f	1cc
.	.	2g	.
2.c	.	2.a	2r
.	.	.	[2ee
4B	.	4b	.
=151	=151	=151	=151
4A	0r	4cc	2ee]
4G	.	4b	.
1A	.	1cc	2a
.	.	.	2cc
4G	.	4b	2dd
4F	.	4a	.
=152	=152	=152	=152
1c	0r	2g	2.ee
.	.	1a	.
.	.	.	4dd
1r	.	.	4ee
.	.	.	4cc
.	.	2d	[2ff
=153	=153	=153	=153
1r	0r	2f	2ff]
.	.	2g	4ee
.	.	.	4dd
2r	.	2.a	2.cc
[2A	.	.	.
.	.	4g	4b
=154	=154	=154	=154
2A]	0r	4f	4a
.	.	4e	4g
2D	.	1f	1a
2F	.	.	.
2A	.	4e	4g
.	.	4d	4f
=155	=155	=155	=155
0Al	0r	0c#Xl	0el
=156||	=156||	=156||	=156||
*M2/1	*M2/1	*M2/1	*M2/1
*met(C|)	*met(C|)	*met(C|)	*met(C|)
!!section: Et spiritum sanctum dominum
!!!OMD: Et spiritum sanctum dominum
2.D	2.f	2.a	2.dd
4D	4f	4a	4dd
2D	2f	2a	2dd
2D	2f	2a	2dd
=157	=157	=157	=157
0D	0f	0a	0dd
=158	=158	=158	=158
1d	1f	2r	2.a
.	.	1a	.
.	.	.	4b
1A	2e	.	4cc
.	.	.	4dd
.	2c	2a	[2ee
=159	=159	=159	=159
1B	1d	2f	2ee]
.	.	2g	2dd
1A	1e	1a	2dd
.	.	.	2cc#i
=160	=160	=160	=160
2D	2d	1a	1dd
2d	2f	.	.
2d	2f	2a	1r
2c	2e	2a	.
=161	=161	=161	=161
2.B-X	2.d	2.f	1ff
8AL	8cL	4g	.
8GJ	8BJ	.	.
1F	2A	1a	2ff
.	[2c	.	2ee
=162	=162	=162	=162
2.G	2c]	1.d	1.dd
.	4B	.	.
4F	4A	.	.
1G	1B	.	.
.	.	2e	4cc
.	.	.	4b
=163	=163	=163	=163
1F	2.c	1f	2.a
.	4d	.	4b
2E	2e	2g	2cc
2D	[2f	[2a	[2dd
=164	=164	=164	=164
2F	4f]	4a]	2dd]
.	4e	4g	.
2A	2c	4e	1cc
.	.	4f	.
1G	1d	1g	.
.	.	.	2b
=165	=165	=165	=165
1C	1c	0g	1cc
2.G	1r	.	1r
4G	.	.	.
=166	=166	=166	=166
2G	2.d	0r	0r
2G	.	.	.
.	4d	.	.
2B	2d	.	.
2B	2d	.	.
=167	=167	=167	=167
2A	2f	0r	0r
2F	2f	.	.
2G	2e	.	.
2E	2c	.	.
=168	=168	=168	=168
0D	2d	1r	2.dd
.	2B	.	.
.	.	.	4dd
.	[1A	2.a	2dd
.	.	.	4dd
.	.	4a	4dd
=169	=169	=169	=169
0r	1A]	2a	2ff
.	.	4a	2ff
.	.	4a	.
.	1r	2cc	1ee
.	.	2cc	.
=170	=170	=170	=170
0r	0r	1b	2dd
.	.	.	2dd
.	.	2a	2cc
.	.	2a	2a
=171	=171	=171	=171
1r	1r	2g	1b
.	.	2e	.
2r	2r	1f	[1a
[2A	[2c	.	.
=172	=172	=172	=172
2A]	2c]	2e	1a]
2A	2c	2f	.
1A	1c	2f	1r
.	.	2f	.
=173	=173	=173	=173
2G	2B	2e	0r
2E	2G	2c	.
1F	1A	1d	.
=174	=174	=174	=174
2E	2B	1e	0r
1A	1c	.	.
.	.	2.e	.
2A	2c	.	.
.	.	4e	.
=175	=175	=175	=175
2G	2B	2e	0r
2A	2c	2e	.
2F	2A	2d	.
[2G	[2B	[2e	.
=176	=176	=176	=176
2G]	2B]	2e]	2r
2F	2A	2d	2dd
1E	2A	2d	2ee
.	2G	2c#i	2ee
=177	=177	=177	=177
0D	1A	1d	1ff
.	2r	2r	2dd
.	2d	2a	2ff
=178	=178	=178	=178
1r	2e	2a	2ee
.	2e	2g	2ee
2r	1f	1a	2a
2D	.	.	2dd
=179	=179	=179	=179
2D	2d	2b	2dd
2D	2f	2a	2dd
2E	2e	2a	2cc
2E	2e	2g	2b
=180	=180	=180	=180
1F	2A	2a	2a
.	2d	2a	1ff
1D	2f	2a	.
.	2f	2a	4ee
.	.	.	4dd
=181	=181	=181	=181
1A	2.e	2.a	2cc
.	.	.	2b
.	4d	4g	.
1A	2c	2f	2a
.	2A	2e	[2cc
=182	=182	=182	=182
0E	1c	1.e	4cc]
.	.	.	4b
.	.	.	1a
.	1B	.	.
.	.	2e	2g#i
=183	=183	=183	=183
1r	1A	2.c	0a
.	.	4d	.
1A	2r	1e	.
.	2c	.	.
=184	=184	=184	=184
2F	2d	0r	0r
2G	2e	.	.
2A	2c	.	.
2D	2f	.	.
=185	=185	=185	=185
2A	2f	1a	0r
2A	2e	.	.
1B	1d	2f	.
.	.	2g	.
=186	=186	=186	=186
0A	1c	1a	1r
.	1r	2r	1cc
.	.	2a	.
=187	=187	=187	=187
0r	0r	2f	2dd
.	.	2g	2ee
.	.	2a	2cc
.	.	2d	2ff
=188	=188	=188	=188
0r	0r	2a	2ff
.	.	2a	2ee
.	.	1b	1dd
=189	=189	=189	=189
1.A	1.e	2a	2cc
.	.	1a	1cc
2A	2e	2a	2cc
=190	=190	=190	=190
2A	2e	2a	2cc
2A	2e	2a	2cc
1D	1f	1a	1dd
=191	=191	=191	=191
1A	1e	1a	1.cc
[1A	[1c	1e	.
.	.	.	2a
=192	=192	=192	=192
2A]	2c]	2e	1cc
2F	2A	1f	.
1G	1B	.	1b
.	.	2e	.
=193	=193	=193	=193
1F	1c	0f	0a
2r	2r	.	.
2F	2A	.	.
=194	=194	=194	=194
1G	2B	2r	0r
.	1d	2d	.
1E	.	2e	.
.	2c	[2g	.
=195	=195	=195	=195
1D	1d	2g]	1r
.	.	4f	.
.	.	4e	.
2r	2.d	1f	2r
2D	.	.	2a
.	4d	.	.
=196	=196	=196	=196
2G	2d	1g	2b
2B	2d	.	1dd
1A	1e	2r	.
.	.	[2a	2cc#i
=197	=197	=197	=197
2D	2.f	2a]	1dd
2D	.	2a	.
.	4e	.	.
2.D	2d	2.f	1r
.	2d	.	.
4E	.	4g	.
=198	=198	=198	=198
2F	2A	2a	2.dd
2G	1B-X	2g	.
.	.	.	4dd
2D	.	2f	2dd
2F	[2A	2d	2dd
=199	=199	=199	=199
2E	2A]	2d	1ee
2E	2G	2c	.
1D	1A	1d	2.ff
.	.	.	4ee
=200	=200	=200	=200
1r	1.f	1.a	2dd
.	.	.	2dd
2.D	.	.	2a
.	2e	2g	[2b-X
4D	.	.	.
=201	=201	=201	=201
2D	2.d	1f	2b-]
2D	.	.	1a
.	4c	.	.
1E	1B	1e	.
.	.	.	2g#i
=202	=202	=202	=202
2F	1A	2c	1a
2.D	.	2d	.
.	1r	2.A	1r
4E	.	.	.
4F	.	.	.
4G	.	4B	.
=203	=203	=203	=203
4A	0r	4c	0r
4B	.	4d	.
4c	.	4e	.
4A	.	4f	.
4B	.	4g	.
4c	.	4e	.
[2d	.	4f	.
.	.	4g	.
=204	=204	=204	=204
4d]	2r	4f	0r
4A	.	4e	.
2c	2e	1a	.
1B	2d	.	.
.	2d	2g#i	.
=205	=205	=205	=205
2A	2.c	1a	0r
2A	.	.	.
.	4d	.	.
2A	4e	1r	.
.	4f	.	.
2B	[2g	.	.
=206	=206	=206	=206
1A	2g]	0r	1r
.	1f	.	.
1G	.	.	1b-X
.	2e	.	.
=207	=207	=207	=207
1F	1f	2r	2a
.	.	2c	2a
1r	2r	4c	2.g
.	.	4d	.
.	2e	4e	.
.	.	4f	4a
=208	=208	=208	=208
0r	2e	2g	4b
.	.	.	4cc
.	2f	1a	1dd
.	1e	.	.
.	.	2g	[2cc
=209	=209	=209	=209
1r	1d	1f	2cc]
.	.	.	2b
2r	2c	2e	2.cc
2A	[2e	2a	.
.	.	.	4dd
=210	=210	=210	=210
2A	2e]	2a	4ee
.	.	.	4ff
2B	2d	2g	1gg
2A	2c	1a	.
4G	[2d	.	2dd
4F	.	.	.
=211	=211	=211	=211
2G	2d]	2b-X	2ee
2A	2c	1a	2.ff
1D	1d	.	.
.	.	.	4ee
.	.	2f	4dd
.	.	.	4cc
=212	=212	=212	=212
2r	2r	2g	4b
.	.	.	4a
1F	1A	2.a	1cc
.	.	4g	.
2G	4B	[2g	2b
.	4c	.	.
=213	=213	=213	=213
1D	1d	2g]	1a
.	.	2f#i	.
1r	1G	1g	1g
=214	=214	=214	=214
1d	1G	0r	0r
1c	1g	.	.
=215	=215	=215	=215
2A	1f	0r	0r
1B-X	.	.	.
.	2d	.	.
2G	[2e	.	.
=216	=216	=216	=216
1A	4e]	0r	0r
.	4d	.	.
.	4c	.	.
.	4B	.	.
2F	2A	.	.
[2G	[2e	.	.
=217	=217	=217	=217
4G]	4e]	0r	1r
4D	4d	.	.
2F	1d	.	.
1E	.	.	1gg
.	2c#i	.	.
=218	=218	=218	=218
1D	1d	2r	1ff
.	.	2a	.
1r	1r	2f	2dd
.	.	2g	[2ee
=219	=219	=219	=219
2r	1r	2a	4ee]
.	.	.	4dd
2A	.	2e	4cc
.	.	.	4b
2F	2r	1r	2a
2G	2e	.	[2ee
=220	=220	=220	=220
2A	2c	2a	4ee]
.	.	.	4dd
2D	2d	2f	1dd
2r	1e	2g	.
2A	.	[2a	2cc#i
=221	=221	=221	=221
2F	2.d	2a]	1dd
2G	.	2d	.
.	4e	.	.
2A	4f	1a	2r
.	4e	.	.
2D	[2f	.	[2a
=222	=222	=222	=222
1A	4f]	2.f	4a]
.	4e	.	4g
.	1c	.	4a
.	.	4g	4b
2.F	.	1a	2cc
.	[2f	.	2a
4G	.	.	.
=223	=223	=223	=223
1A	2f]	2r	2.cc
.	2.e	1g	.
.	.	.	4dd
2r	.	.	2ee
.	4d	.	.
2A	4c	[2cc	[2ff
.	4B	.	.
=224	=224	=224	=224
2F	2A	2cc]	2ff]
2G	2.d	2b	4ee
.	.	.	4dd
1A	.	1a	2ff
.	4B	.	.
.	2c	.	[2ee
=225	=225	=225	=225
2r	2A	1.cc	4ee]
.	.	.	4dd
2A	1a	.	4cc
.	.	.	4b
2F	.	.	2a
2G	2g	2b-X	[2ee
=226	=226	=226	=226
2A	2f	2a	4ee]
.	.	.	4dd
2B-i	4e	2g	1dd
.	4d	.	.
2G	1e	2b-i	.
2A	.	[2a	2cc#i
=227	=227	=227	=227
2F	[0dl	2a]	[0ddl
1G	.	2g	.
.	.	[1b-i	.
4F	.	.	.
4E	.	.	.
=228	=228	=228	=228
[0Dl	0d_	2b-]	0dd_
.	.	4a	.
.	.	4g	.
.	.	2.f	.
.	.	4g	.
=229	=229	=229	=229
0D]	0d]	0al	0dd]
==	==	==	==
*-	*-	*-	*-
!!!system-decoration: s1,s2,s3,s4
!!!RDF**kern: i = editorial accidental
!!!RDF**kern: l = terminal long
!!!ENC: Max Blistain
!!!END: 2025/12/08
!!!EED: Benjamin Ory
!!!EEV: 2026/02/13
!!!YEC: Copyright 2026 Benjamin Ory, All Rights Reserved
!!!ONB: Translated from MusicXML on 2026/02/13
